images/target-bg.svg

<svg fill="none" height="189" viewBox="0 0 178 189" width="178" xmlns="http://www.w3.org/2000/svg"><path d="m21.3461 188.572 7.1207-38.602h-28.108152v-30.732h32.980252l8.6199-48.7208h-31.4812v-30.7316h36.3533l7.1207-39.7262793h32.2307l-7.1207 39.7262793h42.7244l7.121-39.7262793h31.856l-7.121 39.7262793h23.986v30.7316h-28.858l-8.62 48.7208h27.359v30.732h-32.606l-6.746 38.602h-31.8557l6.7457-38.602h-43.099l-6.3712 38.602zm43.8488-69.334h43.4741l7.87-48.7208h-42.7243z" fill="#000" opacity=".05"/></svg>

<svg width="178" height="189" viewBox="0 0 178 189" fill="none" xmlns="http://www.w3.org/2000/svg">
<path opacity="0.05" d="M21.3461 188.572L28.4668 149.97H0.358648V119.238H33.3389L41.9588 70.5172H10.4776V39.7856H46.8309L53.9516 0.0593207H86.1823L79.0616 39.7856H121.786L128.907 0.0593207H160.763L153.642 39.7856H177.628V70.5172H148.77L140.15 119.238H167.509V149.97H134.903L128.157 188.572H96.3013L103.047 149.97H59.948L53.5768 188.572H21.3461ZM65.1949 119.238H108.669L116.539 70.5172H73.8147L65.1949 119.238Z" fill="black"/>
</svg>
